images/t-coin.svg

<svg width="115" height="79" viewBox="0 0 115 79" fill="none" xmlns="http://www.w3.org/2000/svg">
<path d="M98.0172 69.1183C75.7731 82.012 39.7084 82.012 17.4643 69.1183C-4.77977 56.2246 -4.77977 35.3198 17.4643 22.4261C39.7084 9.53244 75.7731 9.53244 98.0172 22.4261C120.261 35.3198 120.261 56.2246 98.0172 69.1183Z" fill="url(#paint0_linear_1812_46962)"/>
<path d="M96.9125 65.4886C75.2797 77.9773 40.206 77.9773 18.5732 65.4886C8.36025 59.5927 2.96888 51.9674 2.39906 44.2455L2.35156 33.4744C2.49679 41.5469 7.90399 49.5936 18.5732 55.7529C40.206 68.2415 75.2797 68.2415 96.9125 55.7529C107.537 49.6192 112.944 41.6139 113.132 33.5754V32.7051C113.139 32.9952 113.139 33.2853 113.132 33.5754V43.3109C112.944 51.3495 107.537 59.3549 96.9125 65.4886Z" fill="#79EFBD" stroke="#0D0B33" stroke-width="0.59185"/>
<path d="M96.9116 55.2499C75.2788 67.7386 40.2051 67.7386 18.5723 55.2499C-3.06054 42.7613 -3.06054 22.5133 18.5723 10.0247C40.2051 -2.46395 75.2788 -2.46395 96.9116 10.0247C118.544 22.5133 118.544 42.7613 96.9116 55.2499Z" fill="#F7F6FF" stroke="#0D0B33" stroke-width="0.59185"/>
<path d="M2.34766 36.5508C5.50724 44.5106 7.9491 48.1687 14.6575 51.9381V62.7092C8.53219 58.3738 5.25278 55.7135 2.34766 46.5525V36.5508Z" fill="#0D0B33"/>
<path d="M19.2734 55.7871L23.8896 58.0952V68.8663L19.2734 66.5582V55.7871Z" fill="#0D0B33"/>
<path fill-rule="evenodd" clip-rule="evenodd" d="M65.5395 31.2505C65.2906 31.4177 63.9829 32.2692 60.8794 34.0608C58.411 35.4859 56.5838 36.4546 55.9395 36.7926C45.9774 42.0556 37.1842 45.2004 35.1813 44.0441C33.1783 42.8879 38.6281 37.8128 47.7379 32.0578L54.2735 35.8307C54.9425 35.4967 56.835 34.5268 59.3034 33.1018C62.2656 31.3918 63.6246 30.4637 63.8667 30.2951L57.3335 26.5235C67.2799 21.2747 76.0574 18.139 78.0559 19.2926C80.0543 20.4463 74.6247 25.5123 65.5283 31.2544L65.5395 31.2505ZM56.6665 26.1281L50.8183 22.7519L64.103 15.0826L55.1847 9.93415L19.0153 30.8147L27.9336 35.9632L41.216 28.2953L47.062 31.6702C36.7656 38.1912 30.801 44.1219 33.3827 45.6123C35.9643 47.1027 46.2354 43.6581 57.5333 37.7152L76.274 48.5342L85.874 42.9922L67.1265 32.1693C77.3983 25.6625 83.3516 19.7408 80.7722 18.2517C78.1929 16.7626 67.942 20.1956 56.662 26.1281L56.6665 26.1281Z" fill="#0D0B33"/>
<defs>
<linearGradient id="paint0_linear_1812_46962" x1="-27.4629" y1="19.791" x2="-21.5946" y2="71.4903" gradientUnits="userSpaceOnUse">
<stop stop-color="white"/>
<stop offset="1" stop-color="white" stop-opacity="0"/>
</linearGradient>
</defs>
</svg>

<svg xmlns="http://www.w3.org/2000/svg" width="115" height="79" fill="none"><path fill="url(#a)" d="M98.017 69.118c-22.244 12.894-58.309 12.894-80.553 0-22.244-12.893-22.244-33.798 0-46.692 22.244-12.894 58.31-12.894 80.553 0 22.244 12.894 22.244 33.799 0 46.692Z"/><path fill="#79EFBD" stroke="#0D0B33" stroke-width=".592" d="M96.912 65.489c-21.632 12.488-56.706 12.488-78.339 0C8.36 59.593 2.97 51.967 2.4 44.245l-.047-10.77c.145 8.072 5.552 16.119 16.221 22.278 21.633 12.489 56.707 12.489 78.34 0 10.624-6.134 16.031-14.14 16.219-22.178v-.87c.007.29.007.58 0 .87v9.736c-.188 8.038-5.595 16.044-16.22 22.178Z"/><path fill="#F7F6FF" stroke="#0D0B33" stroke-width=".592" d="M96.912 55.25c-21.633 12.489-56.707 12.489-78.34 0-21.633-12.489-21.633-32.737 0-45.225 21.633-12.489 56.707-12.489 78.34 0 21.632 12.488 21.632 32.736 0 45.225Z"/><path fill="#0D0B33" d="M2.348 36.55c3.16 7.96 5.601 11.619 12.31 15.388V62.71c-6.126-4.335-9.405-6.995-12.31-16.157V36.552ZM19.273 55.787l4.617 2.308v10.771l-4.617-2.308v-10.77Z"/><path fill="#0D0B33" fill-rule="evenodd" d="M65.54 31.25c-.25.168-1.557 1.02-4.66 2.81a142.597 142.597 0 0 1-4.94 2.733c-9.963 5.263-18.756 8.407-20.759 7.251-2.003-1.156 3.447-6.231 12.557-11.986l6.535 3.773c.67-.334 2.562-1.304 5.03-2.73 2.963-1.71 4.322-2.637 4.564-2.806l-6.533-3.772c9.946-5.248 18.723-8.384 20.722-7.23 1.998 1.153-3.431 6.22-12.528 11.961l.011-.004Zm-8.874-5.122-5.848-3.376 13.285-7.67-8.918-5.148-36.17 20.88 8.919 5.15 13.282-7.669 5.846 3.375c-10.296 6.521-16.261 12.452-13.68 13.942 2.582 1.49 12.853-1.954 24.151-7.897l18.741 10.82 9.6-5.543L67.126 32.17c10.272-6.506 16.226-12.428 13.646-13.917-2.58-1.49-12.83 1.944-24.11 7.876h.005Z" clip-rule="evenodd"/><defs><linearGradient id="a" x1="-27.463" x2="-21.595" y1="19.791" y2="71.49" gradientUnits="userSpaceOnUse"><stop stop-color="#fff"/><stop offset="1" stop-color="#fff" stop-opacity="0"/></linearGradient></defs></svg>
